svgs/sharp-light/file-doc.svg

<svg xmlns="http://www.w3.org/2000/svg" viewBox="0 0 512 512"><!--! Font Awesome Pro 6.6.0 by @fontawesome - https://fontawesome.com License - https://fontawesome.com/license (Commercial License) Copyright 2024 Fonticons, Inc. --><path d="M352 192l0 112 32 0 0-152L232 0 32 0 0 0 0 32 0 480l0 32 32 0 80 0 0-32-80 0L32 32l160 0 0 144 0 16 16 0 144 0zm-5.3-32L224 160l0-122.7L346.7 160zM176 352l-16 0 0 16 0 128 0 16 16 0 32 0c26.5 0 48-21.5 48-48l0-64c0-26.5-21.5-48-48-48l-32 0zm16 128l0-96 16 0c8.8 0 16 7.2 16 16l0 64c0 8.8-7.2 16-16 16l-16 0zM456 352c-22.1 0-40 17.9-40 40l0 80c0 22.1 17.9 40 40 40l16 0c22.1 0 40-17.9 40-40l0-8 0-16-32 0 0 16 0 8c0 4.4-3.6 8-8 8l-16 0c-4.4 0-8-3.6-8-8l0-80c0-4.4 3.6-8 8-8l16 0c4.4 0 8 3.6 8 8l0 8 0 16 32 0 0-16 0-8c0-22.1-17.9-40-40-40l-16 0zM288 392l0 80c0 22.1 17.9 40 40 40l16 0c22.1 0 40-17.9 40-40l0-80c0-22.1-17.9-40-40-40l-16 0c-22.1 0-40 17.9-40 40zm40-8l16 0c4.4 0 8 3.6 8 8l0 80c0 4.4-3.6 8-8 8l-16 0c-4.4 0-8-3.6-8-8l0-80c0-4.4 3.6-8 8-8z"/></svg>

<svg xmlns="http://www.w3.org/2000/svg" viewBox="0 0 512 512"><!--! Font Awesome Pro 6.4.0 by @fontawesome - https://fontawesome.com License - https://fontawesome.com/license (Commercial License) Copyright 2023 Fonticons, Inc. --><path d="M352 192v96h32V152L232 0H32 0V32 480v32H32 96V480H32V32H192V176v16h16H352zm-5.3-32H224V37.3L346.7 160zM176 352H160v16V496v16h16 32c26.5 0 48-21.5 48-48V400c0-26.5-21.5-48-48-48H176zm16 128V384h16c8.8 0 16 7.2 16 16v64c0 8.8-7.2 16-16 16H192zM456 352c-22.1 0-40 17.9-40 40v80c0 22.1 17.9 40 40 40h16c22.1 0 40-17.9 40-40v-8V448H480v16 8c0 4.4-3.6 8-8 8H456c-4.4 0-8-3.6-8-8V392c0-4.4 3.6-8 8-8h16c4.4 0 8 3.6 8 8v8 16h32V400v-8c0-22.1-17.9-40-40-40H456zM288 392v80c0 22.1 17.9 40 40 40h16c22.1 0 40-17.9 40-40V392c0-22.1-17.9-40-40-40H328c-22.1 0-40 17.9-40 40zm40-8h16c4.4 0 8 3.6 8 8v80c0 4.4-3.6 8-8 8H328c-4.4 0-8-3.6-8-8V392c0-4.4 3.6-8 8-8z"/></svg>
